packages/core/src/svgs/tokens/mono/PRY.svg

<svg width="24" height="24" viewBox="0 0 24 24" fill="none" xmlns="http://www.w3.org/2000/svg">
<path d="M2 18.3889H22V18.9445H2V18.3889ZM2 17.2779H22V17.8333H2V17.2779ZM18.289 8.94448C18.1945 8.75558 18.0945 8.5667 17.9833 8.38892H17.5555V7.77781C17.3834 7.55558 17.2001 7.33892 17.0001 7.13892V8.94448H18.289Z" fill="white"/>
<path d="M15.8896 6.22217C16.0841 6.35551 16.2675 6.48883 16.4452 6.63328V9.49995L18.5397 9.50551C18.6119 9.68328 18.6731 9.86662 18.7285 10.0555H15.8896V6.22217Z" fill="white"/>
<path d="M14.7671 5.6167C14.9615 5.70003 15.1504 5.79447 15.3338 5.89447V10.6111H18.8727C18.9116 10.7945 18.9394 10.9779 18.9671 11.1667H14.7671V5.6167Z" fill="white"/>
<path d="M13.6665 5.24976C13.8555 5.29419 14.0388 5.34975 14.2221 5.41086V11.7219H19.011C19.0201 11.907 19.0219 12.0924 19.0166 12.2775H13.6665V5.24976Z" fill="white"/>
<path d="M12.5563 5.05566C12.7452 5.07233 12.9285 5.11122 13.1119 5.13899V12.8335H18.9785C18.9618 13.0223 18.9341 13.2056 18.8952 13.3891H12.5563V5.05566ZM10.8896 5.13899C11.0729 5.11122 11.2562 5.07233 11.4452 5.05566V13.3891H5.10629C5.0674 13.2056 5.03962 13.0223 5.02295 12.8335H10.8896V5.13899Z" fill="white"/>
<path d="M9.7784 5.41086C9.96183 5.34975 10.1451 5.29975 10.334 5.24976V12.2775H4.98401C4.97668 12.0924 4.97668 11.907 4.98401 11.7219H9.7784V5.41086Z" fill="white"/>
<path d="M8.66703 5.88892C8.85037 5.79447 9.03925 5.70003 9.23369 5.6167V11.1667H5.03369C5.06147 10.9779 5.08925 10.7945 5.12814 10.6111H8.66703V5.88892Z" fill="white"/>
<path d="M7.55629 6.6331C7.73406 6.48865 7.9174 6.35533 8.11184 6.22754V10.0553H5.27295C5.32851 9.87755 5.38406 9.69977 5.45072 9.52755H7.55629V6.6331Z" fill="white"/>
<path d="M6.445 7.77781C6.61722 7.55558 6.80055 7.33892 7.00056 7.13892V8.94448H5.71166C5.80611 8.75558 5.90611 8.5667 6.01723 8.38892H6.445V7.77781ZM5.41722 14.5C5.34499 14.3167 5.28945 14.1333 5.23389 13.9444H18.7672C18.7117 14.1333 18.6561 14.3167 18.5839 14.5H5.41722ZM5.945 15.6111C5.83389 15.4334 5.73944 15.2445 5.65056 15.0556H18.3506C18.2616 15.2445 18.1617 15.4334 18.0562 15.6111H5.945ZM6.75055 16.7223C6.595 16.5444 6.445 16.3611 6.30611 16.1667H17.695C17.5561 16.3611 17.4061 16.5444 17.2505 16.7223H6.75055Z" fill="white"/>
</svg>

<svg xmlns="http://www.w3.org/2000/svg" width="24" height="24" fill="none" viewBox="0 0 24 24">
    <path fill="#fff" d="M2 18.389h20v.556H2zm0-1.111h20v.555H2zm16.289-8.334a7 7 0 0 0-.306-.555h-.428v-.611a7 7 0 0 0-.555-.64v1.806z"/>
    <path fill="#fff" d="M15.89 6.222c.194.134.377.267.555.411V9.5l2.095.006q.107.265.189.55h-2.84z"/>
    <path fill="#fff" d="M14.767 5.617q.291.126.567.277v4.717h3.539c.039.183.066.367.094.556h-4.2z"/>
    <path fill="#fff" d="M13.667 5.25q.281.068.555.16v6.312h4.789q.014.277.006.556h-5.35z"/>
    <path fill="#fff" d="M12.556 5.056c.19.016.373.055.556.083v7.695h5.867a5 5 0 0 1-.084.555h-6.339zm-1.666.083c.183-.028.366-.067.555-.083v8.333H5.106a5 5 0 0 1-.083-.555h5.867z"/>
    <path fill="#fff" d="M9.778 5.41c.184-.06.367-.11.556-.16v7.028h-5.35a7 7 0 0 1 0-.556h4.794z"/>
    <path fill="#fff" d="M8.667 5.889c.183-.095.372-.189.567-.272v5.55h-4.2a9 9 0 0 1 .094-.556h3.539z"/>
    <path fill="#fff" d="M7.556 6.633q.265-.215.556-.405v3.827h-2.84c.057-.177.112-.355.179-.527h2.105z"/>
    <path fill="#fff" d="M6.445 7.778c.172-.222.356-.44.556-.64v1.806H5.71a7 7 0 0 1 .306-.555h.428zM5.417 14.5a7 7 0 0 1-.183-.556h13.533a7 7 0 0 1-.183.556zm.528 1.111a5 5 0 0 1-.294-.555h12.7a7 7 0 0 1-.295.555zm.806 1.111a7 7 0 0 1-.445-.555h11.389a7 7 0 0 1-.445.555z"/>
</svg>
